24x24/apps/distributor-logo-fedora.svg

<svg xmlns="http://www.w3.org/2000/svg" width="24" height="24" version="1.1">
 <path style="opacity:.2" d="m12.500053 1.500525c-5.7965545 0-10.495853 4.6987735-10.500053 10.494277v8.875695c0 0.902637 0.7268661 1.629503 1.6295031 1.629503h8.8762199c5.797079 0 10.494277-4.702396 10.494277-10.500053 0-5.7991785-4.701084-10.500052-10.500053-10.500052z"/>
 <path style="fill:#324e89" d="m12.500053 1.000525c-5.7965545 0-10.495853 4.6987735-10.500053 10.494277v8.875695c0 0.902637 0.7268661 1.629503 1.6295031 1.629503h8.8762199c5.797079 0 10.494277-4.702396 10.494277-10.500053 0-5.7991785-4.701084-10.500052-10.500053-10.500052z"/>
 <g transform="translate(.5 -.5)">
  <path style="opacity:.2;fill:#f4f4f7" d="m15 4.5c-2.485281 0-4.5 2.0147185-4.5 4.5v2.5h-2.5c-2.4852815 0-4.5 2.014719-4.5 4.5s2.0147185 4.5 4.5 4.5c2.485281 0 4.5-2.014719 4.5-4.5v-2.5h2.5c2.485281 0 4.5-2.014719 4.5-4.5 0-2.4852815-2.014719-4.5-4.5-4.5zm0 2c1.380711 0 2.5 1.1192885 2.5 2.5 0 1.380712-1.119289 2.5-2.5 2.5h-1.990234c-0.231548 0-0.509766 0.000351-0.509766-0.548828v-1.951172c0-1.3807115 1.119288-2.5 2.5-2.5zm-7 7h1.9902345c0.2315475 0 0.5097655-0.00035 0.5097655 0.548828v1.951172c0 1.380711-1.119288 2.5-2.5 2.5-1.3807115 0-2.5-1.119289-2.5-2.5 0-1.380712 1.1192885-2.5 2.5-2.5z"/>
  <path style="fill:#f4f4f7" d="m15 4.5c-2.485281 0-4.5 2.0147185-4.5 4.5v2.5h-2.5a1 1 0 0 0 -0.099609 0.0049c-0.00065 0.000014-0.0013-0.000015-0.00195 0a1 1 0 0 0 -0.898441 0.9951 1 1 0 0 0 1 1h1.9902345c0.2315475 0 0.5097655-0.00035 0.5097655 0.548828v1.951172c0 1.380711-1.119288 2.5-2.5 2.5-0.384032 0-0.743235-0.09333-1.0683595-0.248047-0.134977-0.064696-0.2816695-0.10165-0.4316405-0.101563-0.5522845 0-1 0.447716-1 1 0.0005 0.377878 0.2139685 0.723198 0.551758 0.892579 0.0000285 0.0031-0.000031 0.0057 0 0.0088 0.5901875 0.284371 1.2492565 0.448231 1.948242 0.448231 2.485281 0 4.5-2.014719 4.5-4.5v-2.5h2a1 1 0 0 0 1 -1 1 1 0 0 0 -1 -1h-1.490234c-0.231548 0-0.509766 0.000351-0.509766-0.548828v-1.951172c0-1.3807115 1.119288-2.5 2.5-2.5 0.252093 0 0.490286 0.04876 0.719727 0.118164-0.000282-0.00285-0.0007-0.00598-0.001-0.00879 0.09132 0.026995 0.186025 0.040805 0.28125 0.041015 0.552284 0 1-0.4477155 1-1-0.000038-0.093495-0.01318-0.1865235-0.03907-0.276367 0.00055-0.01534 0.0039-0.029365 0.0039-0.04492-0.0082-0.013085-0.02406-0.026795-0.0332-0.04004v-0.001c-0.124585-0.3201262-0.404826-0.5539353-0.742154-0.6191167-0.0071-0.00376-0.0144-0.00703-0.02148-0.010742-0.373055-0.1001639-0.763304-0.1582033-1.167973-0.1582033z"/>
 </g>
 <path style="opacity:.1;fill:#f4f4f7" d="m12.5 1c-5.7965545 0-10.4958 4.6986371-10.5 10.494141v0.5c0.0042-5.7955039 4.7034455-10.494141 10.5-10.494141 5.714604 0 10.352285 4.5674327 10.486328 10.25 0.001977-0.083871 0.013672-0.165654 0.013672-0.25 0-5.7991785-4.701031-10.5-10.5-10.5z"/>
</svg>

<svg xmlns="http://www.w3.org/2000/svg" width="24" height="24"><path style="opacity:.2" d="M12.5 1.5C6.703 1.5 2.004 6.2 2 11.996v8.875c0 .903.727 1.63 1.63 1.63h8.876C18.303 22.5 23 17.798 23 12c0-5.8-4.701-10.5-10.5-10.5z"/><path style="fill:#324e89" d="M12.5 1C6.703 1 2.004 5.7 2 11.496v8.875c0 .903.727 1.63 1.63 1.63h8.876C18.303 22 23 17.298 23 11.5 23 5.7 18.299 1 12.5 1z"/><path style="opacity:.2;fill:#f4f4f7" d="M15 4.5A4.5 4.5 0 0 0 10.5 9v2.5H8a4.5 4.5 0 1 0 4.5 4.5v-2.5H15a4.5 4.5 0 0 0 0-9zm0 2a2.5 2.5 0 0 1 0 5h-1.99c-.232 0-.51 0-.51-.549V9A2.5 2.5 0 0 1 15 6.5zm-7 7h1.99c.232 0 .51 0 .51.549V16A2.5 2.5 0 1 1 8 13.5z" transform="translate(.5 -.5)"/><path style="fill:#f4f4f7" d="M15 4.5A4.5 4.5 0 0 0 10.5 9v2.5H8a1 1 0 0 0-.1.005h-.002A1 1 0 0 0 7 12.5a1 1 0 0 0 1 1h1.99c.232 0 .51 0 .51.549V16A2.5 2.5 0 0 1 8 18.5c-.384 0-.743-.093-1.068-.248a.998.998 0 0 0-.432-.102 1 1 0 0 0-.448 1.893v.009c.59.284 1.249.448 1.948.448a4.5 4.5 0 0 0 4.5-4.5v-2.5h2a1 1 0 0 0 1-1 1 1 0 0 0-1-1h-1.49c-.232 0-.51 0-.51-.549V9A2.5 2.5 0 0 1 15 6.5c.252 0 .49.049.72.118l-.001-.009a1 1 0 0 0 1.242-1.235c0-.015.004-.03.004-.045-.008-.013-.024-.027-.033-.04a1 1 0 0 0-.743-.62l-.021-.01A4.493 4.493 0 0 0 15 4.5z" transform="translate(.5 -.5)"/><path style="opacity:.1;fill:#f4f4f7" d="M12.5 1C6.703 1 2.004 5.699 2 11.494v.5C2.004 6.2 6.703 1.5 12.5 1.5c5.715 0 10.352 4.567 10.486 10.25.002-.084.014-.166.014-.25C23 5.7 18.299 1 12.5 1z"/></svg>
